X: 1
T: The Trip To Pakistan
R: reel
M: 4/4
L: 1/8
K: Emin
|:EGBE G3 B|A3 B AGFG|EGBE G3 B|AGFG E4:||:EGBG c3 A|B3 d AGFG|EGBG c3 A|BAGB A4:||:FGBF GBGF|EFGE FGFE|DFAD FADF|AGFG E4:|


Tune 112	Setting 29585

